icons/themes/default/queue.svg

<svg viewBox="0 0 16 16" fill="none" xmlns="http://www.w3.org/2000/svg">
<path fill-rule="evenodd" clip-rule="evenodd" d="M3.026 3.02625C3.00451 3.04774 2.94995 3.1206 2.94995 3.3402V6.4502C2.94995 6.66979 3.00451 6.74265 3.026 6.76414C3.0475 6.78564 3.12036 6.8402 3.33995 6.8402H12.68C12.8995 6.8402 12.9724 6.78564 12.9939 6.76414C13.0154 6.74265 13.07 6.66979 13.07 6.4502V3.3402C13.07 3.1206 13.0154 3.04774 12.9939 3.02625C12.9724 3.00476 12.8995 2.9502 12.68 2.9502H3.33995C3.12036 2.9502 3.0475 3.00476 3.026 3.02625ZM2.3189 2.31914C2.59407 2.04397 2.96621 1.9502 3.33995 1.9502H12.68C13.0537 1.9502 13.4258 2.04397 13.701 2.31914C13.9762 2.59432 14.07 2.96646 14.07 3.3402V6.4502C14.07 6.82393 13.9762 7.19607 13.701 7.47125C13.4258 7.74642 13.0537 7.8402 12.68 7.8402H3.33995C2.96621 7.8402 2.59407 7.74642 2.3189 7.47125C2.04372 7.19608 1.94995 6.82393 1.94995 6.4502V3.3402C1.94995 2.96646 2.04372 2.59432 2.3189 2.31914ZM1.94995 10.4602C1.94995 10.1841 2.17381 9.96021 2.44995 9.96021H13.57C13.8461 9.96021 14.07 10.1841 14.07 10.4602C14.07 10.7363 13.8461 10.9602 13.57 10.9602H2.44995C2.17381 10.9602 1.94995 10.7363 1.94995 10.4602ZM2.44995 13.0702C2.17381 13.0702 1.94995 13.2941 1.94995 13.5702C1.94995 13.8463 2.17381 14.0702 2.44995 14.0702H13.57C13.8461 14.0702 14.07 13.8463 14.07 13.5702C14.07 13.2941 13.8461 13.0702 13.57 13.0702H2.44995Z" fill="#6B7280"/>
</svg>

<svg xmlns="http://www.w3.org/2000/svg" fill="none" viewBox="0 0 16 16">
  <path fill="currentColor" fill-rule="evenodd" d="M3.026 3.026c-.021.022-.076.095-.076.314v3.11c0 .22.055.293.076.314.022.022.094.076.314.076h9.34c.22 0 .292-.054.314-.076.021-.021.076-.094.076-.314V3.34c0-.22-.055-.292-.076-.314-.022-.021-.095-.076-.314-.076H3.34c-.22 0-.292.055-.314.076Zm-.707-.707c.275-.275.647-.369 1.021-.369h9.34c.374 0 .746.094 1.021.37.275.274.369.646.369 1.02v3.11c0 .374-.094.746-.369 1.021-.275.275-.647.37-1.021.37H3.34c-.374 0-.746-.095-1.021-.37-.275-.275-.369-.647-.369-1.02V3.34c0-.375.094-.747.369-1.022ZM1.95 10.46a.5.5 0 0 1 .5-.5h11.12a.5.5 0 0 1 0 1H2.45a.5.5 0 0 1-.5-.5Zm.5 2.61a.5.5 0 0 0 0 1h11.12a.5.5 0 0 0 0-1H2.45Z" clip-rule="evenodd"/>
</svg>
